source/img/sprite/social-reddit.svg

<svg width="16" height="16" viewBox="0 0 16 16" fill="none" xmlns="http://www.w3.org/2000/svg">
<path d="M9.41503 0.363525C8.9486 0.363525 8.51091 0.611969 8.23017 0.97025C7.94942 1.32853 7.79468 1.76527 7.68195 2.22554C7.50289 2.96564 7.44763 3.78681 7.43436 4.52691C6.1235 4.61844 4.93642 5.02641 3.95051 5.65668C3.5504 5.30363 3.0685 5.10749 2.60649 5.11272C2.08038 5.11795 1.58079 5.35593 1.20941 5.84497C0.499822 6.77859 0.581612 8.30587 1.40394 9.21334C1.3531 9.49317 1.31552 9.78084 1.31552 10.0711C1.31552 13.1466 4.30862 15.6363 8.00027 15.6363C11.6919 15.6363 14.685 13.144 14.685 10.0711C14.685 9.78084 14.6474 9.49317 14.5966 9.21334C15.4189 8.30587 15.5007 6.77859 14.7911 5.84497C14.4197 5.35593 13.9202 5.11795 13.394 5.11272C12.932 5.10749 12.4501 5.30363 12.05 5.65668C11.0685 5.02903 9.88809 4.62106 8.58386 4.52691C8.60154 3.84435 8.64796 3.13563 8.77839 2.60213C8.86018 2.26739 8.95744 2.02417 9.06134 1.8908C9.16523 1.75742 9.24039 1.7025 9.41503 1.7025C9.79303 1.7025 9.84167 1.83065 10.0694 2.14186C10.1843 2.29877 10.3169 2.49491 10.5292 2.68582C10.7414 2.87673 11.0553 3.04148 11.3957 3.04148V1.7025C11.3006 1.7025 11.283 1.69989 11.2188 1.63974C11.1547 1.57959 11.0663 1.44098 10.9359 1.26315C10.675 0.904871 10.1688 0.363525 9.41503 0.363525ZM13.0934 0.489055C12.2136 0.489055 11.5018 1.33115 11.5018 2.37199C11.5018 3.41284 12.2136 4.25493 13.0934 4.25493C13.9732 4.25493 14.685 3.41284 14.685 2.37199C14.685 1.33115 13.9732 0.489055 13.0934 0.489055ZM13.0934 1.15854C13.6593 1.15854 14.1191 1.7025 14.1191 2.37199C14.1191 3.04148 13.6593 3.58544 13.0934 3.58544C12.5275 3.58544 12.0677 3.04148 12.0677 2.37199C12.0677 1.7025 12.5275 1.15854 13.0934 1.15854ZM8.00027 5.57299C11.1326 5.57299 13.7831 7.63638 13.7831 10.0711C13.7831 12.5085 11.1326 14.5693 8.00027 14.5693C4.8679 14.5693 2.21743 12.5085 2.21743 10.0711C2.21743 7.63638 4.8679 5.57299 8.00027 5.57299ZM2.62417 6.17972C2.78112 6.18233 2.94471 6.22417 3.10166 6.30524C2.53354 6.81521 2.08259 7.40101 1.77532 8.06265C1.5631 7.54485 1.62058 6.89889 1.88142 6.5563C2.07153 6.30524 2.33459 6.1771 2.62417 6.17972ZM13.3764 6.17972C13.6659 6.1771 13.929 6.30524 14.1191 6.5563C14.38 6.89889 14.4374 7.54485 14.2252 8.06265C13.9179 7.40101 13.467 6.81521 12.8989 6.30524C13.0558 6.22417 13.2194 6.18233 13.3764 6.17972ZM5.73665 7.85344C5.17074 7.85344 4.71095 8.3974 4.71095 9.06689C4.71095 9.73638 5.17074 10.2803 5.73665 10.2803C6.30255 10.2803 6.76235 9.73638 6.76235 9.06689C6.76235 8.3974 6.30255 7.85344 5.73665 7.85344ZM10.2639 7.85344C9.69798 7.85344 9.23818 8.3974 9.23818 9.06689C9.23818 9.73638 9.69798 10.2803 10.2639 10.2803C10.8298 10.2803 11.2896 9.73638 11.2896 9.06689C11.2896 8.3974 10.8298 7.85344 10.2639 7.85344ZM5.18843 11.975C5.54875 12.8563 6.66288 13.7115 8.00027 13.7115C9.33766 13.7115 10.4695 12.8563 10.8298 11.975C10.1755 12.4745 9.14313 12.8118 8.00027 12.8118C6.8574 12.8118 5.84276 12.4745 5.18843 11.975Z" fill="#316DC2"/>
</svg>

<svg width="16" height="16" viewBox="0 0 16 16" fill="none" xmlns="http://www.w3.org/2000/svg"><path d="M9.415.364c-.466 0-.904.248-1.185.606-.28.359-.435.795-.548 1.256-.18.74-.234 1.56-.248 2.3-1.31.092-2.498.5-3.483 1.13-.4-.352-.883-.549-1.345-.543-.526.005-1.025.243-1.397.732-.71.934-.627 2.46.195 3.368a4.81 4.81 0 0 0-.088.858c0 3.076 2.993 5.565 6.684 5.565 3.692 0 6.685-2.492 6.685-5.565 0-.29-.038-.578-.088-.858.822-.907.904-2.434.194-3.368-.371-.49-.87-.727-1.397-.732-.462-.006-.944.19-1.344.544a7.403 7.403 0 0 0-3.466-1.13c.018-.683.064-1.391.194-1.925.082-.335.18-.578.283-.711.104-.134.18-.189.354-.189.378 0 .427.129.654.44.115.157.248.353.46.544.212.19.526.355.867.355V1.702c-.095 0-.113-.002-.177-.062-.064-.06-.153-.199-.283-.377-.261-.358-.767-.9-1.521-.9Zm3.678.125c-.88 0-1.591.842-1.591 1.883 0 1.04.712 1.883 1.591 1.883.88 0 1.592-.842 1.592-1.883 0-1.04-.712-1.883-1.592-1.883Zm0 .67c.566 0 1.026.543 1.026 1.213s-.46 1.213-1.026 1.213c-.566 0-1.025-.544-1.025-1.213 0-.67.46-1.213 1.025-1.213ZM8 5.573c3.133 0 5.783 2.063 5.783 4.498 0 2.438-2.65 4.498-5.783 4.498-3.132 0-5.783-2.06-5.783-4.498 0-2.435 2.65-4.498 5.783-4.498Zm-5.376.607c.157.002.32.044.478.125a5.45 5.45 0 0 0-1.327 1.758c-.212-.518-.154-1.164.106-1.507a.903.903 0 0 1 .743-.376Zm10.752 0a.903.903 0 0 1 .743.376c.261.343.318.989.106 1.507A5.45 5.45 0 0 0 12.9 6.305c.157-.08.32-.123.477-.125Zm-7.64 1.673c-.565 0-1.025.544-1.025 1.214 0 .67.46 1.213 1.026 1.213.566 0 1.025-.544 1.025-1.213 0-.67-.46-1.214-1.025-1.214Zm4.528 0c-.566 0-1.026.544-1.026 1.214 0 .67.46 1.213 1.026 1.213.566 0 1.026-.544 1.026-1.213 0-.67-.46-1.214-1.026-1.214Zm-5.076 4.122c.36.881 1.475 1.736 2.812 1.736 1.338 0 2.47-.855 2.83-1.736-.655.5-1.687.837-2.83.837s-2.157-.337-2.812-.837Z" fill="#316DC2"/></svg>
